StepLang.Homepage/images/step-horizontal-logo.svg

<?xml version="1.0" encoding="UTF-8" standalone="no"?>
<svg viewBox="0 0 200 50" version="1.1" xmlns="http://www.w3.org/2000/svg">
    <style>
        path {
            fill: none;
            stroke: white;
            stroke-linecap: round;
            stroke-width: 7;
            stroke-linejoin: round;
        }
    </style>

    <rect fill="#222222" width="200" height="50" />

    <!-- S -->
    <path
        d="M 45,15
           a 10,5 0,0,0 -40,0
           c -1,10 20,10 20,10
           c 0,0 21,0 20,10
           a 10,5 0,0,1 -40,0
        "
    />

    <!-- T -->
    <path
        d="M 55,5
           l 40,0
           m -20,0
           l 0,40
        "
    />

    <!-- E -->
    <path
        d="M 105,5
           l 40,0
           m -40,20
           l 30,0
           m -30,20
           l 40,0
           m -40, -40
           l 0,40
        "
    />

    <!-- P -->
    <path
        d="M 155,5
           l 0,40
           m 0,-40
           l 20,0
           c 20,0 20,20 0,20
           l -20,0
        "
    />
</svg>

<?xml version="1.0" encoding="UTF-8" standalone="no"?>
<svg viewBox="0 0 200 50" version="1.1" xmlns="http://www.w3.org/2000/svg">
    <style>
        path {
            fill: none;
            stroke: white;
            stroke-linecap: round;
            stroke-width: 7;
            stroke-linejoin: round;
        }
    </style>

    <rect fill="#222222" width="200" height="50" />

    <!-- S -->
    <path
        d="M 45,15
           A 10,5 0,0,0 5,15
           C 4,25 25,25 25,25
           C 25,25 46,25 45,35
           A 10,5 0,0,1 5,35
        "
    />

    <!-- T -->
    <path
        d="M 55,5
           L 95,5
           M 75,5
           L 75,45
        "
    />

    <!-- E -->
    <path
        d="M 105,5
           L 145,5
           M 105,5
           L 105,45
           M 105,25
           L 140,25
           M 105,45
           L 145,45
        "
    />

    <!-- P -->
    <path
        d="M 155,5
           L 155,45
           M 155,5
           L 175,5
           C 195,5 195,25 175,25
           L 155,25
        "
    />
</svg>
